packages/core/src/svgs/tokens/branded/CHEEMS.svg

<svg width="24" height="24" viewBox="0 0 24 24" fill="none" xmlns="http://www.w3.org/2000/svg">
<path d="M12.7177 3.76468C11.6253 3.74751 10.5406 3.94784 9.52644 4.354C8.51232 4.76018 7.58914 5.36405 6.81066 6.13047C6.0322 6.8969 5.414 7.81055 4.99207 8.81823C4.57015 9.82583 4.35292 10.9074 4.35306 11.9999C4.35292 13.0923 4.57015 14.1739 4.99207 15.1816C5.414 16.1892 6.0322 17.1029 6.81066 17.8693C7.58914 18.6357 8.51232 19.2396 9.52644 19.6458C10.5406 20.0519 11.6253 20.2523 12.7177 20.2351C15.6588 20.2351 18.3177 18.7763 19.8353 16.494C19.8963 16.4014 19.9753 16.3218 20.0672 16.2597C20.1593 16.1977 20.2627 16.1544 20.3715 16.1326C20.4804 16.1107 20.5924 16.1107 20.7013 16.1322C20.8102 16.1539 20.9137 16.1969 21.0058 16.2586C21.2528 16.4117 21.4118 16.6822 21.4118 16.9527C21.4118 17.1057 21.3411 17.2645 21.2471 17.4056C19.353 20.5293 16.2823 21.9998 12.7177 21.9998C11.396 22.0083 10.0855 21.7564 8.86116 21.2585C7.6368 20.7605 6.52251 20.0264 5.58192 19.0977C4.64132 18.1692 3.89283 17.0644 3.37921 15.8466C2.86556 14.6287 2.59685 13.3215 2.58838 11.9999C2.58838 6.47641 7.12361 2 12.7177 2C16.1706 2 19.8823 4.0588 21.2587 6.74112C21.3647 6.88229 21.4118 7.02935 21.4118 7.15876C21.4118 7.37641 21.2882 7.57052 21.0528 7.72934C20.87 7.85799 20.6438 7.90914 20.4234 7.87168C20.2031 7.83421 20.0064 7.71117 19.8764 7.52935C19.0551 6.39286 17.9821 5.46169 16.7413 4.80863C15.5004 4.15555 14.1254 3.79827 12.7236 3.76468H12.7177Z" fill="#F6CD95"/>
<path d="M16.1181 6.32914C15.2828 5.58797 12.777 5.62326 11.6299 5.72914C11.2408 5.42529 10.7695 5.24499 10.277 5.2115C10.0887 5.2115 9.86527 5.6762 9.7005 5.94678C9.53579 6.21738 9.5652 6.51737 9.61814 6.73501C8.9551 7.27852 8.45489 7.99445 8.17259 8.80399C7.8903 9.61349 7.83686 10.4852 8.01817 11.3233C7.60641 11.8585 6.7476 12.982 6.61229 13.1996C6.44759 13.4702 6.34171 13.582 6.42407 13.8232C6.97112 15.2643 8.4064 15.2937 8.68287 15.2937C8.90051 15.2937 9.17697 15.435 9.28874 15.5114V16.976C10.7416 17.9761 12.3711 18.2113 13.0063 18.1996C17.6357 18.1996 19.371 13.2585 19.371 11.5703C19.371 10.2939 18.6003 8.82323 18.1357 8.06441C17.8004 6.78795 16.8416 6.48796 16.1181 6.32914Z" fill="#FFB53C"/>
<path d="M12.265 7.62911C11.9886 7.62911 11.2532 8.58205 10.8357 9.05851C10.79 8.5961 10.8762 8.13022 11.0844 7.71482C11.2926 7.29944 11.6143 6.95156 12.0121 6.71147C12.1415 6.66441 12.2414 6.86442 12.265 6.88794C12.2885 6.91736 12.3121 7.14676 12.3826 7.1703C12.7002 7.1703 13.0474 7.34677 13.1768 7.42912L12.8297 7.62911H12.265Z" fill="#D58C0C"/>
<path d="M12.2527 10.2352C12.5705 10.2352 12.9998 10.3704 13.1763 10.4411C12.7998 10.647 12.2939 10.8234 12.0821 10.8234C11.8762 10.8234 11.4116 10.7234 11.4116 10.6175C11.4116 10.5176 11.8528 10.2352 12.2527 10.2352Z" fill="#331B00"/>
<path d="M6.70773 13.1765C6.81361 13.1176 7.02538 12.9647 7.26067 12.7941C7.54831 12.5772 7.84673 12.3749 8.15477 12.1882C8.59594 11.9528 9.06064 11.6823 9.06064 11.5647C8.86654 11.5647 8.31947 11.4823 7.96654 11.4117C7.69596 11.7058 6.89596 12.5882 6.70773 12.8823C6.69008 12.9058 6.72538 13.1529 6.70773 13.1765ZM15.3723 5.94119C15.6958 6.02942 15.9665 6.14707 16.1547 6.30589C16.8606 6.46472 17.8194 6.74706 18.1488 7.95882C18.6075 8.68233 19.3723 10.0765 19.3723 11.2881V11.3882L18.9605 11.9587C18.8546 12.0176 18.7665 12.0352 18.6899 12.0235C18.5606 11.9999 18.4723 11.8882 18.3782 11.7706L18.2547 11.6234C18.1546 11.5176 18.0017 11.2999 17.837 11.0647C17.6311 10.7705 17.4134 10.4529 17.2487 10.2823C17.0371 10.0706 16.8017 9.37056 16.6547 8.91763C16.5841 8.71763 16.5371 8.56469 16.5076 8.52939C16.4664 8.45293 16.3194 8.41175 16.1606 8.37058C16.0311 8.33527 15.8958 8.29999 15.8018 8.24116C15.684 8.17646 15.5664 8.00587 15.4488 7.85881C15.343 7.71763 15.2547 7.59999 15.2017 7.59999C15.1546 7.59999 15.1135 7.64706 15.0664 7.7C15.0017 7.77059 14.9253 7.85294 14.8193 7.85294C14.6253 7.85294 14.3547 7.34118 14.3547 6.95294C14.3547 6.56471 14.6841 6.28236 14.8193 6.22942C14.9253 6.18825 15.2311 6.02354 15.3664 5.94706L15.3723 5.9353V5.94119Z" fill="#D58C0C"/>
<path d="M7.9182 10.741C8.21231 10.7351 8.48878 10.6882 8.48878 10.541C8.48878 10.394 8.1829 10.294 7.9182 10.2352C7.87703 10.4116 7.9182 10.5822 7.9182 10.741Z" fill="#331B00"/>
<path d="M15.2703 7.5233C15.1774 7.47952 15.0979 7.41173 15.04 7.32694C14.9821 7.24214 14.9478 7.1434 14.9409 7.04095C14.9703 6.87625 15.2114 6.70566 15.6232 6.70566C16.0409 6.70566 16.1879 6.99389 16.282 7.04095C16.3703 7.088 16.4292 6.9233 16.5468 6.9233C16.6644 6.9233 16.782 7.15859 16.635 7.2586C16.4879 7.35271 16.1291 7.88213 15.982 7.88213C15.835 7.88213 15.5938 7.68801 15.2703 7.5233Z" fill="#B76801"/>
<path d="M7.8833 9.28215C8.09506 9.44095 8.50094 9.64683 8.90094 9.64683C9.74798 9.64683 10.2656 8.92916 10.2362 8.17623C10.2126 7.61153 9.78916 7.0233 9.45386 6.70566C8.31859 7.49389 8.22447 8.34682 7.8833 9.28215Z" fill="#FFE3B4"/>
<path d="M9.31191 16.2409L9.78249 16.388L10.8001 16.7056L12.5884 15.6881C12.5531 15.188 12.8825 14.3115 12.8825 14.0586C12.8825 13.741 12.0943 13.1763 11.6766 13.1763C11.5119 13.1763 11.1943 13.3527 10.8296 13.5469C10.3001 13.841 9.65308 14.1939 9.1472 14.1939C8.46486 14.1939 8.43545 13.6409 8.4178 13.4175L6.72369 13.7469L6.70605 14.0469C6.91258 14.4108 7.20067 14.7218 7.54769 14.9555C7.89471 15.1893 8.29121 15.3393 8.70603 15.3939C8.92367 15.3939 9.20014 15.5645 9.31191 15.6469V16.2409Z" fill="#D58C0C"/>
<path d="M14.4432 18.0643C14.7138 17.6114 15.0609 17.0644 15.3962 16.6761C15.989 15.9122 16.4556 15.0583 16.7785 14.1468C16.8608 13.9114 16.9843 13.7938 17.0961 13.688C17.2079 13.582 17.2962 13.4938 17.2962 13.3174C17.2962 12.9644 16.1255 11.335 15.8726 11.1997C15.4497 10.9679 14.9781 10.8389 14.4962 10.8232C13.9079 10.8232 11.4549 11.2174 11.3138 11.435C11.1726 11.6526 10.8256 12.988 10.8256 13.3174C10.8256 13.435 11.0609 13.4526 11.3726 13.4703C11.8903 13.5056 12.5903 13.5526 12.5903 14.1526C12.5903 15.0996 10.9433 15.5291 9.99031 15.5291C9.80796 15.5291 9.55502 15.5291 9.34326 15.5114V16.9762C10.8256 17.9762 12.4961 18.2114 13.1432 18.1996C13.602 18.1996 14.0374 18.1526 14.4432 18.0643Z" fill="#FFE3B4"/>
<path d="M8.76491 15.3995C9.27079 15.3761 10.0296 15.1466 10.5002 15.0701C11.1105 14.894 11.6407 14.5115 12.0002 13.9879C12.0002 13.8701 11.8942 13.7643 11.7884 13.7643C11.4943 13.7643 11.065 14.0878 10.8237 14.3526C10.5884 14.6172 9.88251 14.9407 9.0061 14.9407C8.30022 14.9407 8.25904 13.7937 8.3708 13.4584L6.68259 14.0055L6.44141 14.2407C6.92964 15.0642 7.89434 15.3761 8.75904 15.3995H8.76491Z" fill="#B76801"/>
<path d="M6.70755 14.3526C7.14873 14.282 8.47223 13.9408 8.47223 13.3527C8.35413 13.1158 8.17049 12.9179 7.94319 12.7822C7.71587 12.6466 7.45442 12.5793 7.1899 12.5879C6.96048 12.5879 6.93696 12.8056 6.70755 12.882C6.64873 12.9467 6.11933 13.6644 6.14285 13.7233C6.31932 14.0938 6.42519 14.1467 6.70755 14.3526Z" fill="#331B00"/>
<path d="M9.01252 17.1174V15.6644C8.98165 15.6496 8.95026 15.6359 8.91841 15.6233C8.82428 15.5821 8.74194 15.5645 8.68311 15.5645C8.40076 15.5645 6.78313 15.5409 6.16549 13.9175V13.9116C6.10079 13.7292 6.10666 13.5763 6.16549 13.4175L6.26549 13.241L6.31254 13.1586L6.37726 13.0587C6.45372 12.9409 6.71254 12.588 6.98901 12.2175L7.7243 11.2586C7.56421 10.4156 7.62648 9.54528 7.90497 8.73352C8.18346 7.92179 8.66857 7.19657 9.31252 6.6293C9.2831 6.39401 9.28899 6.09401 9.46546 5.80578L9.54781 5.6646L9.7478 5.32931C9.80663 5.24695 9.86543 5.15873 9.94188 5.09403C10.0008 5.0352 10.1184 4.94109 10.2772 4.94109C10.5124 4.94109 11.1007 5.02931 11.7065 5.44696C12.2948 5.3999 13.1772 5.3705 14.0124 5.44107C14.4596 5.47637 14.9066 5.54107 15.3007 5.64108C15.6537 5.74108 15.9948 5.87637 16.2477 6.07636C16.6007 6.15872 17.036 6.28813 17.4242 6.55282C17.9078 6.88679 18.2512 7.38734 18.3889 7.9587C18.6241 8.34693 18.9301 8.89986 19.183 9.52332C19.4645 10.1707 19.6221 10.865 19.6477 11.5704C19.6477 12.4763 19.1948 14.1821 18.1536 15.6703C17.1065 17.1645 15.436 18.4703 13.0007 18.4703C12.3242 18.4821 10.636 18.2351 9.12429 17.1998L9.00663 17.1174H9.01252ZM13.0125 18.1998C17.6359 18.1998 19.3712 13.2587 19.3712 11.5704C19.3712 10.294 18.6006 8.82339 18.1359 8.06457C17.8006 6.78812 16.8419 6.48812 16.1183 6.32931C15.2831 5.58814 12.7771 5.62343 11.6301 5.7293C11.241 5.42545 10.7698 5.24516 10.2772 5.21167C10.1243 5.21167 9.94778 5.51755 9.79487 5.78226C9.76545 5.84107 9.73604 5.8999 9.70075 5.94695C9.53605 6.21754 9.56546 6.51754 9.6184 6.73518C7.789 8.1881 7.82429 10.4587 8.05371 11.3821C7.64195 11.9174 6.74784 12.9821 6.61255 13.1998L6.54784 13.3115C6.41843 13.5057 6.35373 13.6174 6.42431 13.8233C6.97137 15.2645 8.40664 15.2939 8.68311 15.2939C8.90076 15.2939 9.23016 15.4351 9.34193 15.5115V16.9762C10.7949 17.9762 12.3713 18.2115 13.0066 18.1998H13.0125Z" fill="#FAFDF4"/>
</svg>

<svg xmlns="http://www.w3.org/2000/svg" width="24" height="24" fill="none" viewBox="0 0 24 24">
    <path fill="#F6CD95" d="M12.718 3.765a8.235 8.235 0 1 0 0 16.47c2.94 0 5.6-1.459 7.117-3.741a.84.84 0 0 1 1.17-.235.84.84 0 0 1 .407.694c0 .153-.07.312-.165.453C19.353 20.529 16.282 22 12.717 22A10.066 10.066 0 0 1 2.589 12c0-5.524 4.536-10 10.13-10 3.453 0 7.164 2.059 8.54 4.741a.7.7 0 0 1 .154.418c0 .217-.124.412-.36.57a.847.847 0 0 1-1.176-.2 9.1 9.1 0 0 0-7.152-3.764z"/>
    <path fill="#FFB53C" d="M16.118 6.33c-.835-.742-3.341-.707-4.488-.6a2.47 2.47 0 0 0-1.353-.519c-.188 0-.412.465-.576.736-.165.27-.136.57-.083.788a4.66 4.66 0 0 0-1.6 4.588c-.412.535-1.27 1.659-1.406 1.877-.164.27-.27.382-.188.623.547 1.441 1.982 1.47 2.259 1.47.218 0 .494.142.606.218v1.465c1.453 1 3.082 1.235 3.717 1.224 4.63 0 6.365-4.941 6.365-6.63 0-1.276-.77-2.747-1.235-3.506-.336-1.276-1.294-1.576-2.018-1.735"/>
    <path fill="#D58C0C" d="M12.265 7.63c-.276 0-1.012.952-1.43 1.429a2.46 2.46 0 0 1 1.177-2.348c.13-.047.23.153.253.177.024.03.047.259.118.282.317 0 .664.177.794.26l-.347.2z"/>
    <path fill="#331B00" d="M12.253 10.235c.317 0 .747.135.923.206-.376.206-.882.382-1.094.382-.206 0-.67-.1-.67-.206 0-.1.44-.382.84-.382"/>
    <path fill="#D58C0C" d="M6.708 13.177a8 8 0 0 0 .553-.383q.431-.326.894-.606c.44-.235.906-.506.906-.623-.194 0-.742-.083-1.094-.153-.271.294-1.071 1.176-1.26 1.47-.017.024.018.27 0 .295m8.664-7.236c.324.088.595.206.783.365.706.159 1.664.441 1.994 1.653.459.723 1.223 2.117 1.223 3.33v.1l-.412.57a.42.42 0 0 1-.27.065c-.13-.024-.218-.136-.312-.253l-.123-.148a6 6 0 0 1-.418-.558c-.206-.294-.424-.612-.588-.783-.212-.211-.447-.911-.594-1.364-.07-.2-.118-.353-.147-.389-.042-.076-.189-.117-.347-.158-.13-.036-.265-.071-.36-.13-.117-.065-.235-.235-.352-.382-.106-.141-.194-.259-.247-.259-.047 0-.088.047-.136.1-.064.07-.14.153-.247.153-.194 0-.464-.512-.464-.9s.33-.67.464-.724c.106-.04.412-.205.547-.282l.006-.012z"/>
    <path fill="#331B00" d="M7.918 10.741c.294-.006.57-.053.57-.2s-.305-.247-.57-.306c-.041.177 0 .347 0 .506"/>
    <path fill="#B76801" d="M15.27 7.523a.58.58 0 0 1-.33-.482c.03-.165.271-.335.683-.335.418 0 .565.288.659.335.088.047.147-.118.265-.118.117 0 .235.236.088.336-.147.094-.506.623-.653.623s-.388-.194-.712-.359"/>
    <path fill="#FFE3B4" d="M7.883 9.282c.212.159.618.365 1.018.365.847 0 1.365-.718 1.335-1.47-.023-.565-.447-1.154-.782-1.471-1.135.788-1.23 1.64-1.57 2.576"/>
    <path fill="#D58C0C" d="m9.312 16.24.47.148 1.018.318 1.788-1.018c-.035-.5.295-1.376.295-1.63 0-.317-.789-.882-1.206-.882-.165 0-.483.177-.847.37-.53.295-1.177.648-1.683.648-.682 0-.712-.553-.73-.777l-1.693.33-.018.3a2.7 2.7 0 0 0 2 1.347c.218 0 .494.17.606.253z"/>
    <path fill="#FFE3B4" d="M14.443 18.064c.27-.453.618-1 .953-1.388a9 9 0 0 0 1.383-2.53c.082-.235.205-.352.317-.458s.2-.194.2-.37c0-.354-1.17-1.983-1.423-2.118a3.1 3.1 0 0 0-1.377-.377c-.588 0-3.041.394-3.182.612s-.488 1.553-.488 1.882c0 .118.235.136.547.153.517.036 1.217.083 1.217.683 0 .947-1.647 1.376-2.6 1.376-.182 0-.435 0-.647-.018v1.465c1.483 1 3.153 1.235 3.8 1.224q.69-.001 1.3-.136"/>
    <path fill="#B76801" d="M8.765 15.4c.506-.024 1.265-.253 1.735-.33a2.74 2.74 0 0 0 1.5-1.082c0-.118-.106-.224-.212-.224-.294 0-.723.324-.964.589-.236.264-.941.588-1.818.588-.706 0-.747-1.147-.635-1.483l-1.688.547-.242.236c.489.823 1.453 1.135 2.318 1.159z"/>
    <path fill="#331B00" d="M6.708 14.353c.44-.071 1.764-.412 1.764-1a1.38 1.38 0 0 0-1.282-.765c-.23 0-.253.218-.482.294-.06.065-.589.782-.565.841.176.37.282.424.565.63"/>
    <path fill="#FAFDF4" d="M9.013 17.117v-1.453l-.095-.04a.6.6 0 0 0-.235-.06c-.282 0-1.9-.023-2.518-1.646v-.006a.68.68 0 0 1 0-.495l.1-.176.048-.082.064-.1c.077-.118.336-.471.612-.841l.735-.96A4.94 4.94 0 0 1 9.313 6.63a1.24 1.24 0 0 1 .152-.823l.083-.141.2-.336c.059-.082.117-.17.194-.235a.5.5 0 0 1 .335-.153c.235 0 .824.088 1.43.506.588-.047 1.47-.077 2.305-.006.448.035.895.1 1.289.2.353.1.694.235.947.435.353.083.788.212 1.176.477.484.334.827.834.965 1.406.235.388.541.94.794 1.564a5.6 5.6 0 0 1 .465 2.047c0 .906-.453 2.612-1.494 4.1-1.047 1.495-2.718 2.8-5.153 2.8-.677.012-2.365-.235-3.877-1.27l-.117-.083zm4 1.083c4.623 0 6.358-4.941 6.358-6.63 0-1.276-.77-2.747-1.235-3.505-.335-1.277-1.294-1.577-2.018-1.736-.835-.74-3.34-.706-4.488-.6a2.47 2.47 0 0 0-1.353-.517c-.153 0-.33.306-.482.57-.03.06-.059.118-.094.165-.165.27-.136.57-.083.788-1.829 1.453-1.794 3.724-1.564 4.647-.412.535-1.306 1.6-1.441 1.818l-.065.112c-.13.194-.194.305-.124.511.547 1.441 1.983 1.47 2.26 1.47.217 0 .546.142.658.219v1.464c1.453 1 3.03 1.236 3.665 1.224z"/>
</svg>
